X:33
T:Red Wing
M:4/4
L:1/8
K:G
D2 F2|"G"G3  G G2 B2|d6 B2|"C"cd e2 g2 d2|"G"d6 B2|
"C"c3 B A2 c2|"G"B3 A "Em"G2 B2|1"A"A2 E2 F2 G2|"D"ABAG FE D2:|2"A"A2 E2
"D"F2 D2|"G"G2 g2 f2 =f2||
"C"e4 e3 e|e2 g2 (3fgf) e2|"G"d4 B4|z2 d2 e2 d2|"D"d4 (A4|A2) d2 e2 d2|"
G"d4 (B4|B2) f2 g2 f2|
"C"e4 e3 e|e2 g2 (3fgf) e2|"G"d4 B4|z2 d2 e2 d2|"D"d4 (A4|A2) Ac BA F2|"
G"G4||
